packages/vibrant-icons/assets/icons/ChevronRightCircle/Regular.svg

<svg width="24" height="24" viewBox="0 0 24 24" fill="none" xmlns="http://www.w3.org/2000/svg">
<path d="M10.4142 17.9682C10.4923 18.0463 10.619 18.0463 10.6971 17.9682L16.5235 12.1398C16.6015 12.0617 16.6015 11.9351 16.5235 11.857L10.6969 6.02829C10.6188 5.95015 10.4922 5.95015 10.4141 6.02829L9.24135 7.2014C9.16327 7.27949 9.16327 7.40609 9.24134 7.48419L13.7536 11.9982L9.24135 16.5121C9.16328 16.5902 9.16328 16.7168 9.24135 16.7949L10.4142 17.9682Z" fill="#0C0C0C"/>
<path fill-rule="evenodd" clip-rule="evenodd" d="M23.1004 11.9999C23.1004 5.8694 18.1309 0.899902 12.0004 0.899902C5.8699 0.899902 0.899902 5.8694 0.899902 11.9999C0.899902 18.1304 5.8694 23.0999 11.9999 23.0999C18.1304 23.0999 23.1004 18.1304 23.1004 11.9999ZM3.1004 11.9999C3.1004 7.0924 7.0929 3.0999 12.0004 3.0999C16.9079 3.0999 20.8999 7.0924 20.8999 11.9999C20.8999 16.9074 16.9074 20.8999 11.9999 20.8999C7.0924 20.8999 3.1004 16.9074 3.1004 11.9999Z" fill="#0C0C0C"/>
</svg>

<svg xmlns="http://www.w3.org/2000/svg" width="24" height="24" fill="none"><path fill="#0C0C0C" d="M10.414 17.968a.2.2 0 0 0 .283 0l5.826-5.828a.2.2 0 0 0 0-.283l-5.826-5.829a.2.2 0 0 0-.283 0L9.241 7.201a.2.2 0 0 0 0 .283l4.513 4.514-4.513 4.514a.2.2 0 0 0 0 .283z"/><path fill="#0C0C0C" fill-rule="evenodd" d="M23.1 12C23.1 5.87 18.13.9 12 .9S.9 5.87.9 12 5.87 23.1 12 23.1 23.1 18.13 23.1 12m-20 0c0-4.908 3.993-8.9 8.9-8.9 4.908 0 8.9 3.992 8.9 8.9 0 4.907-3.993 8.9-8.9 8.9-4.908 0-8.9-3.993-8.9-8.9" clip-rule="evenodd"/></svg>
